X:1
L:1/8
M:4/4
K:F
 d2 | c2 A2 A2 F2 | G4 C3 d | c2 A2 A2 G F | F6 d2 | c2 A2 A2 F2 | G4 C3 d | c2 A2 A2 G F | F6 f2 | 
 d c B A B A G F | G F E D C2 c2 | d c B A B A G F | F6 c2 | d c B A B A G F | G F E D C2 c2 | 
 d c B A B A G F | F6 f2 | c2 f2 e2 f2 | g2 G2 G2 f2 | c2 f2 e f g e | f6 c2 | d c B A B A G F | 
 G F E D C2 c2 | d c B A B A G F | F6 ||
